X:1984
T:Springlek efter Fjös Erik
S:efter Fjös Erik
R:Polska
O:Lima, Dalarna
Z:Anton Teljebäck
N:Finns även upptecknad av Einar Övergaard 1897 (som nr 367 - springlek) efter Perbjörs Erik Persson, "[[Personer/Fjös Erik]]", i Lima
M:3/4
L:1/8
K:D
|: A>(d d2) f2 | d>(B B2) g2 | f>a g<f e>d | (3 c2e2d2 Bc/B/ 
A>(d d2) f2 | d>(B B2) g2 | f>a g<f e>d | cB/c/ d4 :|
|: f>(g g2) b2 | b>(f f2) g2 | f>a g<f e>d | (3 c2e2d2 Bc/B/ 
Az g2 b2 | b>(f f2) g2 | f>a g<f e>d | cB/c/ d4 :|
(:musicend:)
(:music:)
